Adwaita++/apps/16/kdenlive.svg

<svg height="16" width="16" xmlns="http://www.w3.org/2000/svg">
  <path d="m7.723077 1.0764534.02254 14.4230766h1.131311v-14.4230766z" fill="#444"/>
  <path d="m5.415385 3.3841458v.8653846h1.153846v-.8653846zm-1.153847 1.7307692v.8653846h2.307693v-.8653846zm-2.3076918 1.7307692v.8653847h4.6153848v-.8653847zm-1.1538462 1.7307693v.8653846h5.769231v-.8653846zm1.1538462 1.7307695v.865384h4.6153848v-.865384zm2.3076918 1.730769v.865385h2.307693v-.865385z" fill="#474747" fill-rule="evenodd"/>
  <g fill="#444">
    <path d="m10.607692.49953032h-2.307693-2.307691l1.153846 1.73076928 1.153845 1.7307693 1.153847-1.7307693z"/>
    <path d="m10.479412 4.94237c-.21246.011458-.441233.1982665-.440699.4052636l-.0079 6.1115604c0 .276018.406246.516196.638642.352222l4.378431-3.0662275c.233913-.1619469.23338-.5418381 0-.7045033l-4.37031-3.0452758c-.05833-.040633-.127126-.056821-.197977-.053037z"/>
  </g>
</svg>

<svg xmlns="http://www.w3.org/2000/svg" width="16" height="16" version="1">
 <path fill="#444" d="M 7.723077,1.0764534 7.745617,15.49953 H 8.876928 V 1.0764534 Z"/>
 <path style="fill:#474747;fill-rule:evenodd" d="M 5.415385,3.3841458 V 4.2495304 H 6.569231 V 3.3841458 Z M 4.261538,5.114915 V 5.9802996 H 6.569231 V 5.114915 Z M 1.9538462,6.8456842 V 7.7110689 H 6.569231 V 6.8456842 Z M 0.8,8.5764535 V 9.4418381 H 6.569231 V 8.5764535 Z m 1.1538462,1.7307695 v 0.865384 H 6.569231 v -0.865384 z m 2.3076918,1.730769 v 0.865385 h 2.307693 v -0.865385 z"/>
 <path fill="#444" d="M 10.607692,0.49953032 H 8.299999 5.992308 L 7.146154,2.2302996 8.299999,3.9610689 9.453846,2.2302996 Z"/>
 <path fill="#444" d="m 10.479412,4.94237 c -0.21246,0.011458 -0.441233,0.1982665 -0.440699,0.4052636 l -0.0079,6.1115604 c 0,0.276018 0.406246,0.516196 0.638642,0.352222 l 4.378431,-3.0662275 c 0.233913,-0.1619469 0.23338,-0.5418381 0,-0.7045033 l -4.37031,-3.0452758 c -0.05833,-0.040633 -0.127126,-0.056821 -0.197977,-0.053037 z"/>
</svg>
